!!!COM: Bach, Johann Sebastian
!!!CDT: 1685/3//-1750/7/28/
!!!OTL@@DE: Jesus Christus, unser Heiland
!!!AGN: 4-Part Chorale
!!!SCT: BH 030
!!!SCT: BWV 363
**harm	**root	**kern	**kern	**kern	**kern
!	!	!bass	!tenor	!alto	!soprno
*	*Iorgan	*Iorgan	*Iorgan	*Iorgan	*Iorgan
*M4/4	*M4/4	*M4/4	*M4/4	*M4/4	*M4/4
*met(c)	*met(c)	*met(c)	*met(c)	*met(c)	*met(c)
*MM60	*MM60	*MM60	*MM60	*MM60	*MM60
*k[f#c#g#d#a#e#]	*k[f#c#g#d#a#e#]	*k[f#c#g#d#a#e#]	*k[f#c#g#d#a#e#]	*k[f#c#g#d#a#e#]	*k[f#c#g#d#a#e#]
*d#:	*d#:	*d#:	*d#:	*d#:	*d#:
=1-	=1-	=1-	=1-	=1-	=1-
i	4EE	4.D#	4F#	4A#	4d#
vb	4BB	.	4E#	4A#	4a#
.	.	8C#	.	.	.
VI7	4CC	2BB	4F#	8d#	4a#
.	.	.	.	8c##	.
ivb	4AA	.	8E#	4d#	4g#
.	.	.	8D#	.	.
=2	=2	=2	=2	=2	=2
V	4BB	8AA#	4E#	4c##	4a#
.	.	8G#	.	.	.
ib	8EE	8F#	8A#	8d#	8d#
-VIIb	8DD#	8E#	8G#	8c##	8e#
i	4EE	8D#	4A#	4d#	4f#
.	.	8C#	.	.	.
VI	4CC	8BB	8d#	4d#	4f#
.	.	8AA#	8c##	.	.
=3	=3	=3	=3	=3	=3
viioD7/V	4AA#	4GG##	4B#	4.d#	4f#
V7	4BB	4AA#	8E#	.	4e#
.	.	.	16A#	8c##	.
.	.	.	16G#	.	.
i;	2EE;	2DD#;	2F#;	2A#;	2d#;
=4	=4	=4	=4	=4	=4
i	4EE	8D#	4A#	4d#	4f#
.	.	8C#	.	.	.
VI	4CC	4BB	4B	4d#	4f#
IIIb	4GG	4AA#	4F#	4c#	4f#
VI	4CC	4BB	4F#	4B	4d#
=5	=5	=5	=5	=5	=5
IIIb	4GG	8BB	8F#	4c#	4f#
.	.	8AA#	16G#	.	.
.	.	.	16A#	.	.
IV	4AA	4GG#	4B	8d#	4g#
.	.	.	.	8e#	.
III	4GG	4FF#	8c#	4.f#	4a#
.	.	.	16d#	.	.
.	.	.	16c#	.	.
iib	4FF#	4GG#	16B	.	4g#
.	.	.	16A#	.	.
.	.	.	8B	[8e#	.
=6	=6	=6	=6	=6	=6
ic	4EE	2AA#	4A#	8e#]	4f#
.	.	.	.	4d#	.
V	4BB	.	8.A#	.	4e#
.	.	.	.	8c##	.
.	.	.	16G#	.	.
i;	2EE;	2D#;	2F#;	2A#;	2d#;
!!linebreak: 2
=7	=7	=7	=7	=7	=7
i	4EE	4D#	8A#	4d#	4f#
.	.	.	8B	.	.
IIIb	4GG	4AA#	4c#	8f#	4f#
.	.	.	.	8e#	.
VI	4CC	8BB	4B	4d#	4f#
.	.	8C#	.	.	.
VIb	4CC	8D#	4F#	4B	4d#
.	.	8C#	.	.	.
=8	=8	=8	=8	=8	=8
VI	4CC	8BB	4F#	8d#	4f#
.	.	8AA#	.	8c#	.
IV	4AA	4GG#	4B	8d#	4g#
.	.	.	.	8e#	.
III	4GG	4FF#	[4c#	4.f#	4a#
-VII	4DD	4C#	8.c#]	.	4g#
.	.	.	.	8e#	.
.	.	.	16B	.	.
=9	=9	=9	=9	=9	=9
III;	2GG;	2FF#;	2A#;	2c#;	2f#;
r	4r	4r	4r	4r	4r
IIIb	4GG	4AA#	4c#	8f#	4cc#
.	.	.	.	8e	.
=10	=10	=10	=10	=10	=10
VI	4CC	4BB	8B	4d#	4dd#
.	.	.	8A#	.	.
-VII	4DD	4C#	4G#	4e#y	8cc#
.	.	.	.	.	8b
i	8EE	4.D#	8F#	8f#	8a#
viioD7	8DD#	.	8B	8c##	8g#
i	8EE	.	8A#	8d#	8f#
-VIIb	8DD	8E#	8G#	[8c#	8g#
=11	=11	=11	=11	=11	=11
III	8GG	8F#	8F#	8c#]	4a#
IIIb	8GG	8AA#	8c#	4f#	.
V7b/-VII	8AA	8BB#	8d#	.	4g#
V7b	8BB	8C##	8A#	4e#	.
i	4EE	8D#	4A#	.	4f#
.	.	8FF#	.	4d#	.
viiD7/III	8FF#	8GG#	8B	.	4e#
V	8BB	8AA#	16A#	8c##	.
.	.	.	16G#	.	.
=12	=12	=12	=12	=12	=12
I;	2.EE;	2.DD#;	2.F##;	2.A#;	2.d#;
==	==	==	==	==	==
*-	*-	*-	*-	*-	*-
!!chor2scor: -l 2 -s 0.6 -o %b.pmx
!!!YEC: Copyright 1994, David Huron
!!!YEC: Changes/Additions 2001 by Craig Stuart Sapp
!!!YEN: United States of America
!!!SMA: 371 Bach Chorales, edited by Ludwig Erk, C.F. Peters
!!!PDT: 1850, 1865
!!!ONB: Harmony and Root analysis done manually
